X:201
T:Home Sweet Home Revisited
C:Ricky Skaggs mandolin break
N:From "J.D. Crowe and the New South - Holiday in Japan"
R:bluegrass
L:1/8
Q:1/4=210
M:4/4
K:C
"F"z{E}F2F _B2 cF | "Bb"dF dF cd d_B | dF dF ^dF =d_B | "F"cd cA {^G}=GF DC | 
F2 FG _BG cA | "Bb"{^c}dF dF =cd Fd | "C"{d}eG eG de e2 | "F"[f3A3][eG] [eG][d2F2][cF] | 
zG Ac {A}GF DC | F2 A,_B, =B,C EG | F8 | 


